X: 24327
T: Lough Mountain
R: reel
M: 4/4
K: Edorian
|:B3E FEFA|B2ec dBAF|A3G FDFA|dfed BAFA|
B3E FEFA|(3Bcd ce dBAF|ABde fedf|edBA Be e2:|
|:e3d BABd|(3efg fd edBc|d3B ADFA|dfed BAFA|
e3d BABd|egfd edBc|d3c defe|dBAF Be e2:|

